barcode-off.svg

<svg fill="currentColor" viewBox="0 0 24 24"><path d="M20.84 22.73 16 17.89V18h-2v-2.11l-2-2V18h-1v-5.11l-1-1V18H7V8.89l-1-1V18H5V6.89L1.11 3l1.28-1.27L7 6.34l3 3 1 1 1 1 2 2.01v-.01l2 2v.01l1 1v-.01L18.66 18h-.01l3.46 3.46zM16 6h-2v4.8l2 2zm-4 0h-1v1.8l1 1zm8 0h-3v7.8l3 3zm2 12V6h-1v11.8l.2.2zM10 6h-.8l.8.8zM2 18h2V6H2z"/></svg>

<svg  viewBox="0 0 24 24" fill="currentColor"><path  d="M20.84 22.73L16 17.89V18H14V15.89L12 13.89V18H11V12.89L10 11.89V18H7V8.89L6 7.89V18H5V6.89L1.11 3L2.39 1.73L7 6.34L10 9.34L11 10.34L12 11.34L14 13.35V13.34L16 15.34V15.35L17 16.35V16.34L18.66 18H18.65L22.11 21.46L20.84 22.73M16 6H14V10.8L16 12.8V6M12 6H11V7.8L12 8.8V6M20 6H17V13.8L20 16.8V6M22 18V6H21V17.8L21.2 18H22M10 6H9.2L10 6.8V6M2 18H4V6H2V18Z"/></svg>
